src/symbolic/places/user-home-symbolic.svg

<svg xmlns="http://www.w3.org/2000/svg" width="16" height="16" version="1.1">
 <path style="fill:#565656" d="M 1.5,8 H 3 V 14 H 7 V 10 H 10 V 14 H 14 V 8 H 15.5 L 8.5,1 Z"/>
</svg>

<svg xmlns="http://www.w3.org/2000/svg" width="16" height="16"><path d="M1.5 8H3v6h4v-4h3v4h4V8h1.5l-7-7z" fill="#565656"/></svg>
